X: 27699
T: Morning After
R: reel
M: 4/4
K: Emajor
|:Bcef gb(3gfe|f3g fecB|cGAB A3G|ABAG AGF(E|
E2)BE ABE(B|B)GAB AGF(E|E2)BE Bcef|g3a gf ec:|
|:FAcf e=d cB|c2cB c2BA|FAce =dc BA|BcBA F2EF|
G2GE A2AF|B2Bc G4|BcBA BcBA|1 (G4 G)B (3GFE:|2 Bcef gb3||

